dist/assets/img/svg/icon-heart-big.svg

<svg width="22" height="21" viewBox="0 0 22 21" fill="none" xmlns="http://www.w3.org/2000/svg">
  <path d="M13.3284 0.786144C14.0906 0.453111 14.9088 0.28125 15.7359 0.28125C16.563 0.28125 17.3811 0.453111 18.1434 0.786144C18.9055 1.11908 19.5958 1.60614 20.1758 2.21789C20.756 2.82944 21.2147 3.55383 21.5272 4.34886C21.8396 5.14385 22 5.99489 22 6.85363C22 7.71238 21.8396 8.56342 21.5272 9.3584C21.2148 10.1534 20.7561 10.8777 20.1759 11.4892C20.1759 11.4893 20.176 11.4892 20.1759 11.4892L11.7179 20.4075C11.5295 20.6061 11.2704 20.7182 10.9997 20.7182C10.7291 20.7182 10.47 20.6061 10.2816 20.4075L1.82357 11.4892C0.652537 10.2545 0 8.58643 0 6.85363C0 5.12083 0.652537 3.4528 1.82357 2.21806C2.99563 0.982223 4.59209 0.28179 6.26361 0.28179C7.93512 0.28179 9.53159 0.982223 10.7036 2.21806L10.9997 2.53026L11.2957 2.21823C11.2956 2.21829 11.2957 2.21817 11.2957 2.21823C11.8757 1.6064 12.5662 1.11911 13.3284 0.786144ZM18.7395 3.64016C18.3422 3.22102 17.8722 2.89031 17.3571 2.66529C16.8422 2.4403 16.2914 2.32494 15.7359 2.32494C15.1804 2.32494 14.6296 2.4403 14.1146 2.66529C13.5996 2.89031 13.1295 3.22102 12.7322 3.64016L11.7179 4.70971C11.5295 4.90832 11.2704 5.02042 10.9997 5.02042C10.7291 5.02042 10.47 4.90832 10.2816 4.70971L9.26743 3.64033C8.46526 2.79451 7.38409 2.32548 6.26361 2.32548C5.14313 2.32548 4.06196 2.79451 3.25978 3.64033C2.45658 4.48724 2 5.64253 2 6.85363C2 8.06473 2.45658 9.22003 3.25978 10.0669L10.9997 18.228L18.7397 10.0669C19.1373 9.64794 19.4544 9.14855 19.6712 8.59685C19.888 8.0451 20 7.45266 20 6.85363C20 6.25461 19.888 5.66216 19.6712 5.11041C19.4544 4.55871 19.1371 4.05915 18.7395 3.64016Z" fill="red" stroke-width="10px" stroke="#AD4242"/>
</svg>

<svg width="22" height="21" fill="none" xmlns="http://www.w3.org/2000/svg"><path d="M13.328.786a6.009 6.009 0 012.408-.505 6.01 6.01 0 012.407.505c.762.333 1.453.82 2.033 1.432a6.605 6.605 0 011.351 2.13 6.853 6.853 0 010 5.01 6.602 6.602 0 01-1.351 2.131s0 0 0 0l-8.458 8.918a.99.99 0 01-.718.311.99.99 0 01-.718-.31l-8.458-8.919A6.742 6.742 0 010 6.854a6.74 6.74 0 011.824-4.636C2.996.982 4.592.282 6.264.282c1.671 0 3.268.7 4.44 1.936L11 2.53l.296-.312s0 0 0 0A6.25 6.25 0 0113.328.786zM18.74 3.64a4.253 4.253 0 00-1.383-.975 4.045 4.045 0 00-3.242 0 4.254 4.254 0 00-1.383.975l-1.014 1.07a.99.99 0 01-.718.31.99.99 0 01-.718-.31L9.267 3.64a4.14 4.14 0 00-3.003-1.315A4.14 4.14 0 003.26 3.64 4.673 4.673 0 002 6.854c0 1.21.457 2.366 1.26 3.213L11 18.228l7.74-8.161c.397-.42.714-.918.931-1.47a4.77 4.77 0 000-3.487 4.555 4.555 0 00-.931-1.47z" fill="red" stroke-width="10" stroke="#AD4242"/></svg>1.11911 13.3284 0.786144ZM18.7395 3.64016C18.3422 3.22102 17.8722 2.89031 17.3571 2.66529C16.8422 2.4403 16.2914 2.32494 15.7359 2.32494C15.1804 2.32494 14.6296 2.4403 14.1146 2.66529C13.5996 2.89031 13.1295 3.22102 12.7322 3.64016L11.7179 4.70971C11.5295 4.90832 11.2704 5.02042 10.9997 5.02042C10.7291 5.02042 10.47 4.90832 10.2816 4.70971L9.26743 3.64033C8.46526 2.79451 7.38409 2.32548 6.26361 2.32548C5.14313 2.32548 4.06196 2.79451 3.25978 3.64033C2.45658 4.48724 2 5.64253 2 6.85363C2 8.06473 2.45658 9.22003 3.25978 10.0669L10.9997 18.228L18.7397 10.0669C19.1373 9.64794 19.4544 9.14855 19.6712 8.59685C19.888 8.0451 20 7.45266 20 6.85363C20 6.25461 19.888 5.66216 19.6712 5.11041C19.4544 4.55871 19.1371 4.05915 18.7395 3.64016Z" fill="red" stroke-width="10px" stroke="#AD4242"/>
</svg>
